X: 109
M: C
L: 1/8
K: Dm
|: A2 |\
d^cde fefd | c2 A4 A=B |\
cBcd edec | c2 G4 AG |
|: FG |\

